build/img/svg/doc.svg

<svg width="40" height="44" viewBox="0 0 40 44" fill="none" xmlns="http://www.w3.org/2000/svg">
<path d="M7 21V3C7 1.896 7.896 1 9 1H31L39 9V41C39 42.104 38.104 43 37 43H9C7.896 43 7 42.104 7 41V36" fill="white"/>
<path d="M7 21V3C7 1.896 7.896 1 9 1H31L39 9V41C39 42.104 38.104 43 37 43H9C7.896 43 7 42.104 7 41V36" stroke="#D9D9DE" stroke-width="2" stroke-miterlimit="10"/>
<path d="M36 10H30V4" stroke="#D9D9DE" stroke-width="2" stroke-miterlimit="10"/>
<path d="M27.931 36H2.06897C0.926897 36 0 35.104 0 34V23C0 21.896 0.926897 21 2.06897 21H27.931C29.0731 21 30 21.896 30 23V34C30 35.104 29.0731 36 27.931 36Z" fill="#0061D9"/>
<path d="M7.43836 32.144C6.60636 32.144 5.94636 31.876 5.45836 31.34C4.97836 30.796 4.73836 29.976 4.73836 28.88V28.64C4.73836 27.616 4.98236 26.836 5.47036 26.3C5.95836 25.764 6.61436 25.496 7.43836 25.496C7.87036 25.496 8.25036 25.592 8.57836 25.784C8.91436 25.968 9.18636 26.212 9.39436 26.516V23.6H10.9784V32H9.50236V31.064C9.34236 31.352 9.09036 31.604 8.74636 31.82C8.40236 32.036 7.96636 32.144 7.43836 32.144ZM7.81036 30.8C8.28236 30.8 8.66236 30.664 8.95036 30.392C9.24636 30.112 9.39436 29.688 9.39436 29.12V28.4C9.39436 27.88 9.24236 27.492 8.93836 27.236C8.64236 26.972 8.26636 26.84 7.81036 26.84C7.37836 26.84 7.02636 26.992 6.75436 27.296C6.48236 27.592 6.34636 28.04 6.34636 28.64V28.88C6.34636 29.528 6.48636 30.012 6.76636 30.332C7.04636 30.644 7.39436 30.8 7.81036 30.8ZM15.3012 32.144C14.8692 32.144 14.4572 32.08 14.0652 31.952C13.6812 31.816 13.3452 31.612 13.0572 31.34C12.7692 31.068 12.5412 30.728 12.3732 30.32C12.2052 29.912 12.1212 29.432 12.1212 28.88V28.64C12.1212 28.12 12.2052 27.664 12.3732 27.272C12.5412 26.88 12.7692 26.552 13.0572 26.288C13.3452 26.024 13.6812 25.828 14.0652 25.7C14.4572 25.564 14.8692 25.496 15.3012 25.496C15.7332 25.496 16.1412 25.564 16.5252 25.7C16.9092 25.828 17.2452 26.024 17.5332 26.288C17.8292 26.552 18.0612 26.88 18.2292 27.272C18.3972 27.664 18.4812 28.12 18.4812 28.64V28.88C18.4812 29.424 18.3972 29.9 18.2292 30.308C18.0612 30.716 17.8292 31.056 17.5332 31.328C17.2452 31.6 16.9092 31.804 16.5252 31.94C16.1412 32.076 15.7332 32.144 15.3012 32.144ZM15.3012 30.8C15.7492 30.8 16.1212 30.64 16.4172 30.32C16.7212 30 16.8732 29.52 16.8732 28.88V28.64C16.8732 28.056 16.7212 27.612 16.4172 27.308C16.1212 26.996 15.7492 26.84 15.3012 26.84C14.8452 26.84 14.4692 26.996 14.1732 27.308C13.8772 27.612 13.7292 28.056 13.7292 28.64V28.88C13.7292 29.528 13.8772 30.012 14.1732 30.332C14.4692 30.644 14.8452 30.8 15.3012 30.8ZM22.4365 32.144C21.9965 32.144 21.5845 32.076 21.2005 31.94C20.8245 31.804 20.4965 31.6 20.2165 31.328C19.9365 31.056 19.7165 30.716 19.5565 30.308C19.3965 29.9 19.3165 29.424 19.3165 28.88V28.64C19.3165 28.128 19.4005 27.676 19.5685 27.284C19.7365 26.892 19.9605 26.564 20.2405 26.3C20.5285 26.036 20.8605 25.836 21.2365 25.7C21.6125 25.564 22.0125 25.496 22.4365 25.496C22.8845 25.496 23.2805 25.556 23.6245 25.676C23.9765 25.796 24.2725 25.96 24.5125 26.168C24.7525 26.376 24.9405 26.62 25.0765 26.9C25.2125 27.18 25.2925 27.48 25.3165 27.8H23.7085C23.6445 27.504 23.5125 27.272 23.3125 27.104C23.1205 26.928 22.8285 26.84 22.4365 26.84C22.2285 26.84 22.0325 26.876 21.8485 26.948C21.6725 27.02 21.5125 27.132 21.3685 27.284C21.2325 27.428 21.1245 27.612 21.0445 27.836C20.9645 28.06 20.9245 28.328 20.9245 28.64V28.88C20.9245 29.216 20.9605 29.508 21.0325 29.756C21.1125 29.996 21.2205 30.196 21.3565 30.356C21.4925 30.508 21.6525 30.62 21.8365 30.692C22.0205 30.764 22.2205 30.8 22.4365 30.8C22.7485 30.8 23.0165 30.72 23.2405 30.56C23.4725 30.392 23.6285 30.152 23.7085 29.84H25.3165C25.2765 30.192 25.1765 30.512 25.0165 30.8C24.8645 31.08 24.6605 31.32 24.4045 31.52C24.1565 31.72 23.8645 31.876 23.5285 31.988C23.1925 32.092 22.8285 32.144 22.4365 32.144Z" fill="white"/>
</svg>

<svg width="40" height="44" fill="none" xmlns="http://www.w3.org/2000/svg"><path d="M7 21V3a2 2 0 012-2h22l8 8v32a2 2 0 01-2 2H9a2 2 0 01-2-2v-5" fill="#fff"/><path d="M7 21V3a2 2 0 012-2h22l8 8v32a2 2 0 01-2 2H9a2 2 0 01-2-2v-5" stroke="#D9D9DE" stroke-width="2" stroke-miterlimit="10"/><path d="M36 10h-6V4" stroke="#D9D9DE" stroke-width="2" stroke-miterlimit="10"/><path d="M27.931 36H2.069C.927 36 0 35.104 0 34V23c0-1.104.927-2 2.069-2h25.862c1.142 0 2.069.896 2.069 2v11c0 1.104-.927 2-2.069 2z" fill="#0061D9"/><path d="M7.438 32.144c-.832 0-1.492-.268-1.98-.804-.48-.544-.72-1.364-.72-2.46v-.24c0-1.024.244-1.804.732-2.34.488-.536 1.144-.804 1.968-.804.432 0 .812.096 1.14.288.336.184.608.428.816.732V23.6h1.584V32H9.502v-.936c-.16.288-.412.54-.756.756-.344.216-.78.324-1.308.324zM7.81 30.8c.472 0 .852-.136 1.14-.408.296-.28.444-.704.444-1.272v-.72c0-.52-.152-.908-.456-1.164-.296-.264-.672-.396-1.128-.396-.432 0-.784.152-1.056.456-.272.296-.408.744-.408 1.344v.24c0 .648.14 1.132.42 1.452.28.312.628.468 1.044.468zm7.491 1.344c-.432 0-.844-.064-1.236-.192a2.822 2.822 0 01-1.008-.612 2.897 2.897 0 01-.684-1.02c-.168-.408-.252-.888-.252-1.44v-.24c0-.52.084-.976.252-1.368a2.82 2.82 0 01.684-.984c.288-.264.624-.46 1.008-.588a3.744 3.744 0 011.236-.204c.432 0 .84.068 1.224.204.384.128.72.324 1.008.588.296.264.528.592.696.984.168.392.252.848.252 1.368v.24c0 .544-.084 1.02-.252 1.428a2.82 2.82 0 01-.696 1.02 2.822 2.822 0 01-1.008.612 3.64 3.64 0 01-1.224.204zm0-1.344c.448 0 .82-.16 1.116-.48.304-.32.456-.8.456-1.44v-.24c0-.584-.152-1.028-.456-1.332a1.474 1.474 0 00-1.116-.468c-.456 0-.832.156-1.128.468-.296.304-.444.748-.444 1.332v.24c0 .648.148 1.132.444 1.452.296.312.672.468 1.128.468zm7.135 1.344c-.44 0-.852-.068-1.235-.204a2.724 2.724 0 01-.985-.612c-.28-.272-.5-.612-.66-1.02-.16-.408-.24-.884-.24-1.428v-.24c0-.512.085-.964.253-1.356.168-.392.392-.72.672-.984a2.94 2.94 0 01.995-.6 3.5 3.5 0 011.2-.204 3.6 3.6 0 011.189.18c.352.12.648.284.887.492.24.208.428.452.564.732.136.28.216.58.24.9H23.71a1.21 1.21 0 00-.396-.696c-.192-.176-.485-.264-.877-.264a1.6 1.6 0 00-.587.108 1.379 1.379 0 00-.48.336 1.551 1.551 0 00-.325.552c-.08.224-.12.492-.12.804v.24c0 .336.037.628.108.876.08.24.189.44.325.6.136.152.296.264.48.336.183.072.384.108.6.108.311 0 .58-.08.803-.24.233-.168.389-.408.469-.72h1.608c-.04.352-.14.672-.3.96-.152.28-.357.52-.613.72-.247.2-.54.356-.875.468-.337.104-.7.156-1.093.156z" fill="#fff"/></svg>
